app/images/dist/enhance__focus.svg

<svg width="259" height="258" viewBox="0 0 259 258" fill="none" xmlns="http://www.w3.org/2000/svg">
<mask id="mask0_71_918" style="mask-type:alpha" maskUnits="userSpaceOnUse" x="0" y="0" width="259" height="258">
<ellipse cx="129.352" cy="128.862" rx="129.352" ry="128.86" fill="#C4C4C4"/>
</mask>
<g mask="url(#mask0_71_918)">
<path d="M129.431 161.085C146.912 161.085 161.084 146.913 161.084 129.431C161.084 111.95 146.912 97.7778 129.431 97.7778C111.949 97.7778 97.7773 111.95 97.7773 129.431C97.7773 146.913 111.949 161.085 129.431 161.085Z" stroke="white" stroke-miterlimit="10"/>
<path d="M129.429 165.833C149.533 165.833 165.83 149.535 165.83 129.431C165.83 109.327 149.533 93.0298 129.429 93.0298C109.325 93.0298 93.0273 109.327 93.0273 129.431C93.0273 149.535 109.325 165.833 129.429 165.833Z" stroke="white" stroke-miterlimit="10"/>
<path d="M129.429 171.29C152.547 171.29 171.287 152.549 171.287 129.432C171.287 106.314 152.547 87.5732 129.429 87.5732C106.311 87.5732 87.5703 106.314 87.5703 129.432C87.5703 152.549 106.311 171.29 129.429 171.29Z" stroke="white" stroke-miterlimit="10"/>
<path d="M129.431 177.57C156.018 177.57 177.57 156.018 177.57 129.431C177.57 102.845 156.018 81.293 129.431 81.293C102.845 81.293 81.293 102.845 81.293 129.431C81.293 156.018 102.845 177.57 129.431 177.57Z" stroke="white" stroke-miterlimit="10"/>
<path d="M129.427 184.799C160.006 184.799 184.795 160.01 184.795 129.431C184.795 98.8521 160.006 74.063 129.427 74.063C98.8477 74.063 74.0586 98.8521 74.0586 129.431C74.0586 160.01 98.8477 184.799 129.427 184.799Z" stroke="white" stroke-miterlimit="10"/>
<path d="M129.431 193.093C164.59 193.093 193.092 164.591 193.092 129.431C193.092 94.2722 164.59 65.77 129.431 65.77C94.2717 65.77 65.7695 94.2722 65.7695 129.431C65.7695 164.591 94.2717 193.093 129.431 193.093Z" stroke="white" stroke-miterlimit="10"/>
<path d="M129.428 202.652C169.866 202.652 202.648 169.87 202.648 129.432C202.648 88.9929 169.866 56.2109 129.428 56.2109C88.989 56.2109 56.207 88.9929 56.207 129.432C56.207 169.87 88.989 202.652 129.428 202.652Z" stroke="white" stroke-miterlimit="10"/>
<path d="M129.429 213.629C175.93 213.629 213.627 175.933 213.627 129.431C213.627 82.9301 175.93 45.2334 129.429 45.2334C82.9272 45.2334 45.2305 82.9301 45.2305 129.431C45.2305 175.933 82.9272 213.629 129.429 213.629Z" stroke="white" stroke-miterlimit="10"/>
<path d="M129.428 226.265C182.908 226.265 226.262 182.911 226.262 129.431C226.262 75.9513 182.908 32.5972 129.428 32.5972C75.9478 32.5972 32.5938 75.9513 32.5938 129.431C32.5938 182.911 75.9478 226.265 129.428 226.265Z" stroke="white" stroke-miterlimit="10"/>
<path d="M129.431 240.788C190.931 240.788 240.788 190.932 240.788 129.431C240.788 67.9308 190.931 18.0747 129.431 18.0747C67.9303 18.0747 18.0742 67.9308 18.0742 129.431C18.0742 190.932 67.9303 240.788 129.431 240.788Z" stroke="white" stroke-miterlimit="10"/>
<path d="M129.428 257.488C200.152 257.488 257.485 200.155 257.485 129.431C257.485 58.7076 200.152 1.37451 129.428 1.37451C58.7041 1.37451 1.37109 58.7076 1.37109 129.431C1.37109 200.155 58.7041 257.488 129.428 257.488Z" stroke="white" stroke-miterlimit="10"/>
<path d="M129.428 276.695C210.76 276.695 276.693 210.763 276.693 129.431C276.693 48.0994 210.76 -17.833 129.428 -17.833C48.0965 -17.833 -17.8359 48.0994 -17.8359 129.431C-17.8359 210.763 48.0965 276.695 129.428 276.695Z" stroke="white" stroke-miterlimit="10"/>
<path d="M129.429 298.789C222.963 298.789 298.787 222.965 298.787 129.431C298.787 35.897 222.963 -39.9272 129.429 -39.9272C35.8946 -39.9272 -39.9297 35.897 -39.9297 129.431C-39.9297 222.965 35.8946 298.789 129.429 298.789Z" stroke="white" stroke-miterlimit="10"/>
<path d="M129.429 324.188C236.99 324.188 324.186 236.993 324.186 129.431C324.186 21.87 236.99 -65.3257 129.429 -65.3257C21.8676 -65.3257 -65.3281 21.87 -65.3281 129.431C-65.3281 236.993 21.8676 324.188 129.429 324.188Z" stroke="white" stroke-miterlimit="10"/>
<path d="M129.428 353.398C253.121 353.398 353.394 253.125 353.394 129.432C353.394 5.73816 253.121 -94.5352 129.428 -94.5352C5.73425 -94.5352 -94.5391 5.73816 -94.5391 129.432C-94.5391 253.125 5.73425 353.398 129.428 353.398Z" stroke="white" stroke-miterlimit="10"/>
<path d="M129.429 387.001C271.681 387.001 386.999 271.683 386.999 129.431C386.999 -12.8207 271.681 -128.139 129.429 -128.139C-12.8226 -128.139 -128.141 -12.8207 -128.141 129.431C-128.141 271.683 -12.8226 387.001 129.429 387.001Z" stroke="white" stroke-miterlimit="10"/>
</g>
</svg>

<svg width="259" height="258" fill="none" xmlns="http://www.w3.org/2000/svg"><mask id="a" style="mask-type:alpha" maskUnits="userSpaceOnUse" x="0" y="0" width="259" height="258"><ellipse cx="129.352" cy="128.862" rx="129.352" ry="128.86" fill="#C4C4C4"/></mask><g mask="url(#a)" stroke="#fff" stroke-miterlimit="10"><path d="M129.431 161.085c17.481 0 31.653-14.172 31.653-31.654 0-17.481-14.172-31.653-31.653-31.653-17.482 0-31.654 14.172-31.654 31.653 0 17.482 14.172 31.654 31.654 31.654Z"/><path d="M129.429 165.833c20.104 0 36.401-16.298 36.401-36.402 0-20.104-16.297-36.401-36.401-36.401-20.104 0-36.402 16.297-36.402 36.401 0 20.104 16.298 36.402 36.402 36.402Z"/><path d="M129.429 171.29c23.118 0 41.858-18.741 41.858-41.858 0-23.118-18.74-41.859-41.858-41.859S87.57 106.314 87.57 129.432c0 23.117 18.741 41.858 41.859 41.858Z"/><path d="M129.431 177.57c26.587 0 48.139-21.552 48.139-48.139 0-26.586-21.552-48.138-48.139-48.138-26.586 0-48.138 21.552-48.138 48.138 0 26.587 21.552 48.139 48.138 48.139Z"/><path d="M129.427 184.799c30.579 0 55.368-24.789 55.368-55.368s-24.789-55.368-55.368-55.368c-30.58 0-55.368 24.79-55.368 55.368 0 30.579 24.789 55.368 55.368 55.368Z"/><path d="M129.431 193.093c35.159 0 63.661-28.502 63.661-63.662 0-35.159-28.502-63.661-63.661-63.661-35.16 0-63.662 28.502-63.662 63.661 0 35.16 28.503 63.662 63.662 63.662Z"/><path d="M129.428 202.652c40.438 0 73.22-32.782 73.22-73.22 0-40.44-32.782-73.221-73.22-73.221-40.439 0-73.221 32.782-73.221 73.221 0 40.438 32.782 73.22 73.221 73.22Z"/><path d="M129.429 213.629c46.501 0 84.198-37.696 84.198-84.198 0-46.5-37.697-84.198-84.198-84.198-46.502 0-84.198 37.697-84.198 84.198 0 46.502 37.696 84.198 84.198 84.198Z"/><path d="M129.428 226.265c53.48 0 96.834-43.354 96.834-96.834 0-53.48-43.354-96.834-96.834-96.834-53.48 0-96.834 43.354-96.834 96.834 0 53.48 43.354 96.834 96.834 96.834Z"/><path d="M129.431 240.788c61.5 0 111.357-49.856 111.357-111.357 0-61.5-49.857-111.356-111.357-111.356S18.074 67.93 18.074 129.43c0 61.501 49.856 111.357 111.357 111.357Z"/><path d="M129.428 257.488c70.724 0 128.057-57.333 128.057-128.057 0-70.723-57.333-128.056-128.057-128.056C58.704 1.375 1.371 58.708 1.371 129.43c0 70.724 57.333 128.057 128.057 128.057Z"/><path d="M129.428 276.695c81.332 0 147.265-65.932 147.265-147.264 0-81.332-65.933-147.264-147.265-147.264-81.332 0-147.264 65.932-147.264 147.264 0 81.332 65.932 147.264 147.264 147.264Z"/><path d="M129.429 298.789c93.534 0 169.358-75.824 169.358-169.358S222.963-39.927 129.429-39.927-39.93 35.897-39.93 129.43s75.825 169.359 169.36 169.359Z"/><path d="M129.429 324.188c107.561 0 194.757-87.195 194.757-194.757 0-107.561-87.196-194.757-194.757-194.757S-65.328 21.87-65.328 129.431c0 107.562 87.196 194.757 194.757 194.757Z"/><path d="M129.428 353.398c123.693 0 223.966-100.273 223.966-223.966 0-123.694-100.273-223.967-223.966-223.967C5.734-94.535-94.539 5.738-94.539 129.432c0 123.693 100.273 223.966 223.967 223.966Z"/><path d="M129.429 387.001c142.252 0 257.57-115.318 257.57-257.57s-115.318-257.57-257.57-257.57-257.57 115.318-257.57 257.57 115.318 257.57 257.57 257.57Z"/></g></svg>
